material/.icons/material/email-receive-outline.svg

<svg xmlns="http://www.w3.org/2000/svg" viewBox="0 0 24 24"><path d="M22 20h-4v3l-5-4.5 5-4.5v3h4v3M20 4H4a2 2 0 00-2 2v12a2 2 0 002 2h7v-2H4V8l8 5 8-5v7h2V6a2 2 0 00-2-2m-8 7L4 6h16z"/></svg>

<?xml version="1.0" encoding="UTF-8"?><!DOCTYPE svg PUBLIC "-//W3C//DTD SVG 1.1//EN" "http://www.w3.org/Graphics/SVG/1.1/DTD/svg11.dtd"><svg xmlns="http://www.w3.org/2000/svg" xmlns:xlink="http://www.w3.org/1999/xlink" version="1.1" id="mdi-email-receive-outline" width="24" height="24" viewBox="0 0 24 24"><path d="M22 20H18V23L13 18.5L18 14V17H22V20M20 4H4A2 2 0 0 0 2 6V18A2 2 0 0 0 4 20H11V18H4V8L12 13L20 8V15H22V6A2 2 0 0 0 20 4M12 11L4 6H20Z" /></svg>
